packages/core/src/svgs/tokens/mono/GEL.svg

<svg width="24" height="24" viewBox="0 0 24 24" fill="none" xmlns="http://www.w3.org/2000/svg">
<path d="M17.3982 7.81665C17.3982 8.0911 17.1408 8.28552 16.8606 8.25693C16.1745 8.18831 15.5455 8.19404 14.9622 8.25693C13.6814 8.38844 12.6179 8.8173 11.64 9.18324L11.4629 9.24608C10.4222 9.635 9.46156 9.96095 8.32365 9.9895C7.86621 10.001 7.38018 9.96095 6.84268 9.85221C6.61427 9.80124 6.40561 9.6849 6.24214 9.51733C6.07869 9.34988 5.96749 9.13841 5.92208 8.90878C5.76621 8.11521 5.77824 7.29779 5.9574 6.50914C6.13656 5.72051 6.47889 4.97812 6.96233 4.32979C7.44578 3.68145 8.05965 3.14154 8.76439 2.74481C9.46916 2.34809 10.2491 2.10334 11.0542 2.02633C11.8593 1.94931 12.6715 2.04173 13.4387 2.29764C14.2058 2.55355 14.911 2.96729 15.5086 3.5122C16.1062 4.05712 16.5831 4.72114 16.9085 5.4615C17.234 6.20187 17.4007 7.0022 17.3982 7.81092V7.81665Z" fill="white"/>
<path d="M6.38502 10.6926C6.30797 10.6762 6.22832 10.6762 6.15125 10.6925C6.07419 10.7089 6.00145 10.7413 5.93778 10.7877C5.87411 10.8341 5.82093 10.8935 5.78173 10.9618C5.74253 11.0301 5.7182 11.1061 5.71029 11.1844C5.70458 11.2702 5.72172 11.356 5.76747 11.4473L11.211 21.8713C11.3025 22.0429 11.5484 22.0429 11.6398 21.8713L18.2041 10.3666C18.2671 10.2466 18.2956 10.1151 18.2899 9.98933C18.2785 9.69194 18.0784 9.41749 17.7525 9.35465C16.7632 9.15452 15.8083 9.13731 15.0592 9.21162C13.9042 9.3317 12.9436 9.6862 11.9487 10.0579L11.7943 10.1151C10.6996 10.5784 9.53311 10.8492 8.3463 10.9157C7.71731 10.9327 7.11692 10.8642 6.38502 10.6869V10.6926Z" fill="white"/>
<path d="M11.4285 10.3896C11.4285 10.2638 11.5028 10.1609 11.6171 10.1151L11.7772 10.0579C12.832 9.64124 13.9345 9.35705 15.0594 9.21162C15.8084 9.13731 16.7633 9.15452 17.7526 9.35465C18.0956 9.42323 18.3015 9.72623 18.29 10.0408C18.29 10.1552 18.2557 10.2638 18.2042 10.3666L11.6399 21.8713C11.6198 21.9099 11.5894 21.942 11.552 21.9642C11.5147 21.9865 11.4718 21.9978 11.4285 21.9971V10.3896Z" fill="white"/>
</svg>

<svg xmlns="http://www.w3.org/2000/svg" width="24" height="24" fill="none" viewBox="0 0 24 24">
    <path fill="#fff" d="M17.398 7.817c0 .274-.257.469-.537.44a9 9 0 0 0-1.899 0c-1.28.131-2.344.56-3.322.926l-.177.063c-1.04.389-2.001.715-3.14.743a6.6 6.6 0 0 1-1.48-.137 1.21 1.21 0 0 1-.92-.943A5.793 5.793 0 1 1 17.397 7.81zM6.385 10.693a.563.563 0 0 0-.675.491.5.5 0 0 0 .057.263l5.444 10.424a.243.243 0 0 0 .429 0l6.564-11.504a.74.74 0 0 0 .086-.378.66.66 0 0 0-.537-.634 9.3 9.3 0 0 0-2.694-.143c-1.155.12-2.115.474-3.11.846l-.155.057a10.3 10.3 0 0 1-3.448.8c-.629.018-1.23-.05-1.961-.228z"/>
    <path fill="#fff" d="M11.429 10.39a.29.29 0 0 1 .188-.275l.16-.057a13.7 13.7 0 0 1 3.282-.846 9.3 9.3 0 0 1 2.694.143.67.67 0 0 1 .537.686.7.7 0 0 1-.086.326L11.64 21.87a.23.23 0 0 1-.212.126z"/>
</svg>
